X:6780
T:The Flowers of Edinburgh Jig
O:england
M:4/4
T:Knuckle Down
C:
S:Bacon (RD from Arnold Woodley)
N:
A:Bampton
R:Reel
%P:A.(AB)$^2$.C.B
P:A.(AB)2.C.B
K:G
I:speed 400
P:A
DEFD  G2 GA | B2 B2 BdcB  | AGFG  EFGA  | B2 E2  E2 GE  |\
DEFD  G2 A2 | B2 B2 Bgfe  | dcBA  GFGA  | B2 G2  G4     ||\
P:B
{ef}g6   ag | f8          | edef  gfed  | B2 e2  e2 ge  |\
dBGB  d2 dd | edef  g2 fe | dcBA  GFGA  | B2 G2  G2 e<f |\
g2 g2 gbag  | f2 f2 fagf  | e2 ef gfed  | B2 e2  e2 ge  |\
dBGB  d2 dd | edef  g2 fe | dcBA  GFGA  | B2 G2  G4     ||\
P:C
E4 | D2 E2 F2 D2 | G4    A4    | B4    B4    | (B d3) c2 B2  |\
A2 G2 F2 G2 | E2 F2 G2 A2 | B4    E4    | E6        GE  |\
DEFD  G2 A2 | B2 B2 Bgfe  | dcBA  GFGA  | B2 G2  G2     ||


